X: 19653
T: Jearoid
R: reel
M: 4/4
K: Adorian
B/c/d|e4 d4|cBAG EG B/c/d|e4 d4|dega gA B/c/d|
e4 d3 B|cBAG EGAB|cBAc BAGE|DEGA G3 A||
AG E2 EGAB|AGEG A4|GE D2 DEGA|GEDE G4|
AGED EGAB|AGEG A3 B|cBAc BAGE|DEGA G3 A||

